X:1097
T:Morning Mist, The
R:reel
C:Joe Burke (1939-2021)
Z:id:hn-reel-1097
M:C|
L:1/8
K:G
d2BG DG~G2 | dGBG DGBd | c2A=F cF~F2 | c=FAF CFAc |
d2BG DG~G2 | DGBG dGBd | ceAB cedc |1 (3Bcd AF G2Bc :|2 (3Bcd AF G2Bd ||
|: g2dg Bgdc | BG~G2 DGBd | agea abag | fdad bdaf |
g2dg Bgdc | BGGF GBdB | c2AB cedc |1 (3Bcd AF G2Bd :|2 (3Bcd AF G2Bc ||

